X: 5
T: Este van már, késő este
M:4/4
L:1/4
K:D
ddce | dBAF | (A/A/) A G/F/ E | F<D D z |
ddce | dBAF | (A/A/) A G/F/ E | F<D D z |
dddd | dfe2 | B>c ed | A B A2 |
ddce | d<BAF | A A G/F/ E | F<D D z |

